X:1
T:Miss Montgomerie of Annick Lodge Strathspey
M:C
L:1/16
R:Strathspey
B:Earl of Eglinton – New Strathspey Reels for the Piano Forte, Violin and B:Violoncello  (1796, p. 2)
N:Hugh Montgomerie (1739-1819) was the 12th Earl of Eglinton
N:and a fiddler-composer. His collection was anonymously
N:published in Edinburgh by Nathaniel Gow in 1796.
K:F
C2|F3c A3c Bd3 Tc3A|F3c dcBA B2G2 G3A|F3c AS3c Bd3 Tc3A|F3f agfe f3F F2:|
f2|agfe f3c A2c2 F2c2|F3c dcBA B2G2 G3g|agfe f3c A2c2 F2c2|df3 Tc3B A2F2 F3f|
agfe f3c A2d2 F2c2|F3c dcBA B2G2 G2c2|fa3 df3 cf3 A3f|df3 Tc3B A2F2 F2||

